src/assets/icons/states/exposure-unset.svg

<?xml version="1.0" encoding="UTF-8"?>
<svg width="40px" height="40px" viewBox="0 0 40 40" version="1.1" xmlns="http://www.w3.org/2000/svg" xmlns:xlink="http://www.w3.org/1999/xlink">
    <title>notification exposure unset</title>
    <g id="notification-exposure-unset" stroke="none" stroke-width="1" fill="none" fill-rule="evenodd">
        <path d="M29.9142136,10 L31.3284271,11.4142136 L13.4142136,29.3284271 L12,27.9142136 L29.9142136,10 Z M22,24.9996142 C22,26.1041837 21.1045695,26.9996142 20,26.9996142 C19.5939342,26.9996142 19.2161329,26.8785994 18.9006933,26.6706669 L20.571,24.9994134 L22,24.9996142 Z M21.6290049,11.2682445 C22.620962,11.6073733 23.4526694,12.2382643 24.0417779,13.0453359 L13.086,23.9994134 L13,23.9996142 C12.4477153,23.9996142 12,23.551899 12,22.9996142 C12,22.4867784 12.3860402,22.0641071 12.8833789,22.0063419 L13,21.9996142 L13.5,21.9996142 C14.3503609,21.3132486 14.8837639,20.3140663 14.9849702,19.2325451 L15,18.9996142 L15,16.1206142 C15,15.0704137 15.3242098,13.9808372 15.8637419,13.2181828 L16.0030478,13.0345421 L16.146376,12.8566445 C17.4696822,11.2880276 19.6793387,10.6016957 21.6290049,11.2682445 Z M25.2661337,20.3046513 C25.4910108,20.8899639 25.8509355,21.4198471 26.3226732,21.8478319 L26.5,21.9996142 L27,21.9996142 C27.5329418,21.9932816 27.9756398,22.409206 28.0025237,22.941507 C28.0276153,23.4383212 27.6762562,23.9209543 27.1218468,23.9830973 L27,23.9898295 L26.998,23.9884134 L26.9742857,23.9996142 L21.571,23.9994134 L25.2661337,20.3046513 Z" id="Combined-Shape" fill="#000000" fill-rule="nonzero"></path>
    </g>
</svg>

<svg width="40" height="40" xmlns="http://www.w3.org/2000/svg"><path d="M29.914 10l1.414 1.414-17.914 17.914L12 27.914 29.914 10zM22 25a2 2 0 01-3.1 1.67L20.572 25H22zm-.371-13.732c.992.34 1.824.97 2.413 1.777L13.086 24H13a1 1 0 01-.117-1.993L13 22h.5a4.04 4.04 0 001.485-2.767L15 19v-2.88c0-1.05.324-2.14.864-2.902l.139-.183.143-.178c1.324-1.569 3.533-2.255 5.483-1.589zm3.637 9.037a4.04 4.04 0 001.057 1.543L26.5 22h.5a.992.992 0 011.003.942.993.993 0 01-.881 1.041L27 23.99l-.002-.002-.024.012h-5.403l3.695-3.695z" fill="#000" fill-rule="nonzero"/></svg>
